!! 00000] TT[WS
!!!OTL: Ge qingcai
!!!ARE: Asia, China,ÿShanxi Ningwu
!! Ethnic Group: Han
!! WI, 71 (2)
!!!SCT: J0085
!!!YEM: Copyright 1995, estate of Helmut Schaffrath.
**kern
*ICvox
*Ivox
*M2/4
*k[f#]
*G:
{8dd
16ee
16dd
4a
=1
8dd
16ee
16dd
4a
=2
4g
8.dd
16ee
=3
16b
16dd
16a
16e
4g}
=4
{8g
16g
16e
8dd
16b
16dd
=5
8g
16e
16d
16b
16dd
16b
16a
=6
16g
16g
16g
16e
8dd
16a
16b
=7
16a
16b
16a
16e
4d}
=8
{8b
8ee
16b
16ee
16b
16a
=9
16g
16g
16g
16e
8dd
16a
16b
=10
16a
16b
16a
16e
4d}
==
!!!AGN: Xiaodiao. Laodong, Shouhuo
!!!ONB: ESAC (Essen Associative Code) Database: CHINA
!!!AMT: simple duple
!!!AIN: vox
!!!EED: Helmut Schaffrath
!!!EEV: 1.0
*-
